X:1
T:Title
%%score { ( 1 3 ) | 2 }
L:1/8
Q:1/4=100
M:4/4
K:Eb
V:1 treble nm="Grand Piano"
V:3 treble 
V:2 bass 
V:1
 G3 G G2 F2 | c3 c z2 A2 | [Ge]2 [GB]2 [EA]2 E2 | [EG]3 [DF] [DF]4 | F3 F B2 c2 | B3 A G4 | %6
w: Caryl~Florio * * *||||||
 [EB]3 [EB] [Ee]2 [Ef]2 | [Ee]3 [E_d] [Ec]2 [EAc][EAc] | [DFB]2 [Ee]2 [B,EG]2 [A,DF]2 | %9
w: |||
 [G,E]6 z2 |] %10
w: |
V:2
 [E,B,E]3 [E,B,E][K:treble] [A,C]2 [A,C]2 | [A,DF]3 [A,DF] [G,EG]2[K:bass] [F,D]2 | %2
 [E,E]2 [E,E]2 [C,A,]2 [C,A,]2 | [B,,B,]3 [B,,B,] [B,,B,]4 | [A,B,D]3 [A,B,D] [G,B,E]2 [G,B,E]2 | %5
 [F,B,D]3 [F,B,D] [E,B,E]4 | [_D,G,]3 [D,G,] [C,A,]2 [C,A,]2 | [B,,G,]3 [B,,G,] [A,,A,]2 A,,A,, | %8
 A,,2 G,,A,, B,,2 B,,2 | E,6 z2 |] %10
V:3
 x8 | z4 B4 | x8 | x8 | x8 | x8 | x8 | x8 | x8 | x8 |] %10

